X:1
T:Campanero
T:Arr. Juan Camilo Gómez Lizarazú
T:Frère Jacques
T:Are you sleeping?
%%score 1 2 3 4
L:1/8
M:4/4
K:D
V:1 treble nm="Violin I" snm="Vln. I"
V:2 treble nm="Violin II" snm="Vln. II"
V:3 alto nm="Viola" snm="Vla."
V:4 bass nm="Violoncello" snm="Vlc."
V:1
 z8 | z8 | z8 | z8 | z8 | z8 | D2 E2 F2 D2 | D2 E2 F2 D2 | F2 G2 A4 | F2 G2 A4 | ABAG F2 D2 | %11
 ABAG F2 D2 | D2 A,2 D2 z2 | D2 A,2 D2 z2 | z2"^pizz." A2 z2 A2 | z2 A2 z2 A2 | z2 AA z2 AA | %17
 z2 AA z2 AA | z2 A2 z2 A2 | z2 A2 z2 A2 | z2 A2 z2 A2 | z2 A2 z2 A2 | z2 G,G, z2 DD | %23
 z2 G,G, z2 DD | z2 AA z2 DD | z2 AA z2 DD | z2 AA z2 DD | z2 AA z2 DD | z8 | z8 | z8 | z8 | %32
"^arco" D2 E2 F2 D2 | D2 E2 F2 D2 | F2 G2 A4 | F2 G2 A4 | ABAG F2 D2 | ABAG F2 D2 | D2 A,2 D2 z2 | %39
"^pizz." D2 A,2 D2 z2 | z8 | z8 | z8 | D2 A,2 D2 z2 | z4 c4 | d4 z4 |] %46
V:2
 z8 | z8 | z8 | z8 | D2 E2 F2 D2 | D2 E2 F2 D2 | F2 G2 A4 | F2 G2 A4 | ABAG F2 D2 | ABAG F2 D2 | %10
 D2 A,2 D2 z2 | D2 A,2 D2 z2 | z8 | z8 |"^pizz." D4 D4 | D4 D4 | D2 D2 D2 D2 | D2 D2 D2 D2 | %18
 D4 D4 | D4 D4 | D4 D4 | D4 D4 | D4 D4 | G,4 D4 | A4 D4 | A4 D4 | A4 D4 | A4 D4 | z8 | z8 | %30
"^arco" D2 E2 F2 D2 | D2 E2 F2 D2 | F2 G2 A4 | F2 G2 A4 | ABAG F2 D2 | ABAG F2 D2 | D2 A,2 D2 z2 | %37
"^pizz." D2 A,2 D2 z2 | z8 | z8 | z8 | z8 | z8 | D2 A,2 D2 z2 | z4 A4 | A4 z4 |] %46
V:3
 z2"^pizz." A2 z2 A2 | z2 A2 z2 A2 | z2 AA z2 AA | z2 AA z2 AA | z2 A2 z2 A2 | z2 A2 z2 A2 | %6
 z2 A2 z2 A2 | z2 A2 z2 A2 | z2 G,G, z2 DD | z2 G,G, z2 DD | z2 AA z2 DD | z2 AA z2 DD | %12
 z2 AA z2 DD | z2 AA z2 DD | z8 | z8 | z8 | z8 | z8 | z8 |"^arco" D2 E2 F2 D2 | D2 E2 F2 D2 | %22
 F2 G2 A4 | F2 G2 A4 | ABAG F2 D2 | ABAG F2 D2 | D2 A,2 D2 z2 | D2 A,2 D2 z2 | z8 | z8 | z8 | z8 | %32
 z8 | z8 |"^arco" D2 E2 F2 D2 | D2 E2 F2 D2 | F2 G2 A4 | F2 G2 A4 | ABAG F2 D2 | ABAG F2 D2 | %40
 D2 A,2 D2 z2 |"^pizz." D2 A,2 D2 z2 | z8 | D2 A,2 D2 z2 | z4 G4 | F4 z4 |] %46
V:4
"^pizz." D,4 D,4 | D,4 D,4 | D,2 D,2 D,2 D,2 | D,2 D,2 D,2 D,2 | D,4 D,4 | D,4 D,4 | D,4 D,4 | %7
 D,4 D,4 | D,4 D,4 | G,,4 D,4 | A,4 D,4 | A,4 D,4 | A,4 D,4 | A,4 D,4 | z8 | z8 | z8 | z8 | %18
"^arco" D,2 E,2 F,2 D,2 | D,2 E,2 F,2 D,2 | F,2 G,2 A,4 | F,2 G,2 A,4 | A,B,A,G, F,2 D,2 | %23
 A,B,A,G, F,2 D,2 | D,2 A,,2 D,2 z2 | D,2 A,,2 D,2 z2 | z8 | z6 z2 |"^pizz." D,4 D,4 | D,4 D,4 | %30
 z8 | z8 | z8 | z8 | z8 | z8 |"^arco" D,2 E,2 F,2 D,2 | D,2 E,2 F,2 D,2 | F,2 G,2 A,4 | %39
 F,2 G,2 A,4 | A,B,A,G, F,2 D,2 | A,B,A,G, F,2 D,2 | D,2 A,,2 D,2 z2 |"^pizz." D,2 A,,2 D,2 z2 | %44
 z4 A,,4 | D,2 D,,2 z4 |] %46

